img/next.svg

<svg width="488" height="488" xmlns="http://www.w3.org/2000/svg"><defs><linearGradient x1="0%" y1="50%" x2="100%" y2="50%" id="a"><stop stop-color="#4776E6" offset="0%"/><stop stop-color="#8E54E9" offset="100%"/></linearGradient></defs><g transform="rotate(90 244 244)" fill="none"><circle fill="url(#a)" cx="243.811" cy="243.811" r="243.811"/><path d="M477.946 311.989L369.499 145.983l-145.688-26.551-83.061 67.379-19.051 159.247 105.792 141.007c5.396.357 10.834.557 16.319.557 110.985 0 204.639-74.165 234.136-175.633z" fill="url(#a)" opacity=".37"/><path d="M243.811 84.54c-87.964 0-159.271 71.308-159.271 159.271 0 87.963 71.307 159.271 159.271 159.271 87.964 0 159.271-71.307 159.271-159.271 0-87.964-71.307-159.271-159.271-159.271zm9.925 247.773h-64.812l76.963-88.502-76.963-88.502h64.812l76.963 88.502-76.963 88.502z" fill="#FFF"/></g></svg>

<?xml version="1.0" encoding="UTF-8"?>
<svg width="488px" height="488px" viewBox="0 0 488 488" version="1.1" xmlns="http://www.w3.org/2000/svg" xmlns:xlink="http://www.w3.org/1999/xlink">
    <!-- Generator: Sketch 50.2 (55047) - http://www.bohemiancoding.com/sketch -->
    <title>next</title>
    <desc>Created with Sketch.</desc>
    <defs>
        <linearGradient x1="0%" y1="50%" x2="100%" y2="50%" id="linearGradient-1">
            <stop stop-color="#4776E6" offset="0%"></stop>
            <stop stop-color="#8E54E9" offset="100%"></stop>
        </linearGradient>
    </defs>
    <g id="Page-1" stroke="none" stroke-width="1" fill="none" fill-rule="evenodd">
        <g id="Desktop-HD-Copy" transform="translate(-1244.000000, -8174.000000)" fill-rule="nonzero">
            <g id="Блог" transform="translate(0.000000, 7398.000000)">
                <g id="Еще" transform="translate(938.000000, 776.000000)">
                    <g id="next" transform="translate(550.000000, 244.000000) rotate(90.000000) translate(-550.000000, -244.000000) translate(306.000000, 0.000000)">
                        <circle id="Oval" fill="url(#linearGradient-1)" cx="243.811" cy="243.811" r="243.811"></circle>
                        <path d="M477.946,311.989 L369.499,145.983 L223.811,119.432 L140.75,186.811 L121.699,346.058 L227.491,487.065 C232.887,487.422 238.325,487.622 243.81,487.622 C354.795,487.622 448.449,413.457 477.946,311.989 Z" id="Shape" fill="url(#linearGradient-1)" opacity="0.37"></path>
                        <path d="M243.811,84.54 C155.847,84.54 84.54,155.848 84.54,243.811 C84.54,331.774 155.847,403.082 243.811,403.082 C331.775,403.082 403.082,331.775 403.082,243.811 C403.082,155.847 331.775,84.54 243.811,84.54 Z M253.736,332.313 L188.924,332.313 L265.887,243.811 L188.924,155.309 L253.736,155.309 L330.699,243.811 L253.736,332.313 Z" id="Shape" fill="#FFFFFF"></path>
                    </g>
                </g>
            </g>
        </g>
    </g>
</svg>
